X: 3181
T: Ambelree.   a Reel.
%R: reel
B: Niel Gow & Sons "Complete Repository" v.3 p.18 #1
Z: 2021 John Chambers <jc:trillian.mit.edu>
M: C|
L: 1/8
K: G
% - - - - - - - - - -
V: 1 staves=2
A |\
~B2BG c2cA | B2BG A=FFA | B2BG c2cA | (B/c/d) (e/f/g) BGG :| =f | e2ec d2dB | (A/_B/c) =f2 AFFf |
e2ec d2dc | (B/c/d) (e/f/g) BGG=f || e2ec d2dB | (A/_B/c) =f2 AFFf | .e.e ec .d.d dc | (B/c/d) (e/f/g) BGG |]
% - - - - - - - - - -
V: 2 clef=bass middle=d
z | g2g2 a2a2 | g2g2 =f2f2 | g2g2 a2a2 | g2d2 G2G :| z | c'2c'2 b2b2 | a2a2 =f2f2 |
c'2c'2 b2a2 | g2d2 G2G2 || c'2c'2 b2b2 | a2a2 =f2f2 | c'2c'2 b2a2 | g2d2 G2G |]


